icons/sort-desc-16.svg

<svg xmlns="http://www.w3.org/2000/svg" width="16" height="16" viewBox="0 0 16 16">
  <defs/>
  <path d="M0,4.25 C0,3.836 0.336,3.5 0.75,3.5 L8.25,3.5 C8.664,3.5 9,3.836 9,4.25 C9,4.664 8.664,5 8.25,5 L0.75,5 C0.336,5 0,4.664 0,4.25 Z M0,8.25 C0,7.836 0.336,7.5 0.75,7.5 L5.25,7.5 C5.664,7.5 6,7.836 6,8.25 C6,8.664 5.664,9 5.25,9 L0.75,9 C0.336,9 0,8.664 0,8.25 Z M0,12.25 C0,11.836 0.336,11.5 0.75,11.5 L3.25,11.5 C3.664,11.5 4,11.836 4,12.25 C4,12.664 3.664,13 3.25,13 L0.75,13 C0.336,13 0,12.664 0,12.25 Z"/>
  <path d="M13.5,10 L15.75,10 A0.25 0.25 0 0 1 15.927,10.427 L12.927,13.427 A0.25 0.25 0 0 1 12.573,13.427 L9.573,10.427 A0.25 0.25 0 0 1 9.75,10 L12,10 L12,3.75 A0.75 0.75 0 0 1 13.5,3.75 L13.5,10 Z"/>
</svg>

<svg xmlns="http://www.w3.org/2000/svg" width="16" height="16" viewBox="0 0 16 16"><path fill-rule="evenodd" d="M0 4.25a.75.75 0 01.75-.75h7.5a.75.75 0 010 1.5H.75A.75.75 0 010 4.25zm0 4a.75.75 0 01.75-.75h4.5a.75.75 0 010 1.5H.75A.75.75 0 010 8.25zm0 4a.75.75 0 01.75-.75h2.5a.75.75 0 010 1.5H.75a.75.75 0 01-.75-.75z"/><path d="M13.5 10h2.25a.25.25 0 01.177.427l-3 3a.25.25 0 01-.354 0l-3-3A.25.25 0 019.75 10H12V3.75a.75.75 0 011.5 0V10z"/></svg>
